flaticon/design/oval-1.svg

<svg xmlns="http://www.w3.org/2000/svg" width="32" height="32" viewBox="0 0 24 24">
    <path d="M 24 10.398438 L 22.671875 10.398438 C 21.972656 5.683594 18.316406 2.027344 13.601562 1.328125 L 13.601562 0 L 10.398438 0 L 10.398438 1.328125 C 5.683594 2.027344 2.027344 5.683594 1.328125 10.398438 L 0 10.398438 L 0 13.601562 L 1.328125 13.601562 C 2.027344 18.316406 5.683594 21.972656 10.398438 22.671875 L 10.398438 24 L 13.601562 24 L 13.601562 22.671875 C 18.316406 21.972656 21.972656 18.316406 22.671875 13.601562 L 24 13.601562 Z M 11.199219 0.800781 L 12.800781 0.800781 L 12.800781 2.398438 L 11.199219 2.398438 Z M 0.800781 12.800781 L 0.800781 11.199219 L 2.398438 11.199219 L 2.398438 12.800781 Z M 12.800781 23.199219 L 11.199219 23.199219 L 11.199219 21.601562 L 12.800781 21.601562 Z M 13.601562 21.871094 L 13.601562 20.800781 L 10.398438 20.800781 L 10.398438 21.871094 C 6.128906 21.1875 2.8125 17.871094 2.128906 13.601562 L 3.199219 13.601562 L 3.199219 10.398438 L 2.128906 10.398438 C 2.8125 6.128906 6.128906 2.8125 10.398438 2.128906 L 10.398438 3.199219 L 13.601562 3.199219 L 13.601562 2.128906 C 17.871094 2.8125 21.1875 6.128906 21.871094 10.398438 L 20.800781 10.398438 L 20.800781 13.601562 L 21.871094 13.601562 C 21.1875 17.871094 17.871094 21.1875 13.601562 21.871094 Z M 23.199219 12.800781 L 21.601562 12.800781 L 21.601562 11.199219 L 23.199219 11.199219 Z M 23.199219 12.800781"/>
</svg>

<svg xmlns="http://www.w3.org/2000/svg" width="32" height="32" viewBox="0 0 24 24">
    <path d="M24 10.398h-1.328a10.723 10.723 0 0 0-9.07-9.07V0h-3.204v1.328a10.723 10.723 0 0 0-9.07 9.07H0v3.204h1.328a10.723 10.723 0 0 0 9.07 9.07V24h3.204v-1.328a10.723 10.723 0 0 0 9.07-9.07H24zM11.2.801h1.6v1.597h-1.6zM.8 12.8v-1.602h1.598v1.602zm12 10.398h-1.6v-1.597h1.6zm.802-1.328v-1.07h-3.204v1.07a9.94 9.94 0 0 1-8.27-8.27H3.2v-3.203H2.13a9.94 9.94 0 0 1 8.27-8.27V3.2h3.203V2.13a9.94 9.94 0 0 1 8.27 8.27H20.8v3.203h1.07a9.94 9.94 0 0 1-8.27 8.27zm9.597-9.07h-1.597v-1.602h1.597zm0 0"/>
</svg>
